storage/app/icons/phosphoricons/fill/castle-turret-fill.svg

<svg xmlns="http://www.w3.org/2000/svg" fill="currentColor" viewBox="0 0 256 256"><path d="M216 216h-16V115.31L211.31 104A15.86 15.86 0 0 0 216 92.69V48a16 16 0 0 0-16-16h-20a8 8 0 0 0-8 8v24h-24V40a8 8 0 0 0-8-8h-24a8 8 0 0 0-8 8v24H84V40a8 8 0 0 0-8-8H56a16 16 0 0 0-16 16v44.69A15.86 15.86 0 0 0 44.69 104L56 115.31V216H40a8 8 0 0 0 0 16h176a8 8 0 0 0 0-16m-104-48a16 16 0 0 1 32 0v48h-32Z"/></svg>

<svg xmlns="http://www.w3.org/2000/svg" viewBox="0 0 256 256" fill="currentColor"><path d="M216,216H200V115.31L211.31,104A15.86,15.86,0,0,0,216,92.69V48a16,16,0,0,0-16-16H180a8,8,0,0,0-8,8V64H148V40a8,8,0,0,0-8-8H116a8,8,0,0,0-8,8V64H84V40a8,8,0,0,0-8-8H56A16,16,0,0,0,40,48V92.69A15.86,15.86,0,0,0,44.69,104L56,115.31V216H40a8,8,0,0,0,0,16H216a8,8,0,0,0,0-16ZM112,168a16,16,0,0,1,32,0v48H112Z"/></svg>
